: 1
T: Hey THIS Way
C: Cammy Kaynor
S: https://www.facebook.com/photo/?fbid=10223827659673764&set=g.569412393840399 2021-11-12
R: jig
Z: 2021 John Chambers <jc:trillian.mit.edu>
M: 6/8
L: 1/8
K: Dm	% and F
"A"A^c \
| "Dm"def "A"eA^c | "Dm"def "A"eA^c | "Dm"def "G"gfg | "A"a2A A^ce |\
| "A"aag "Dm"faf | "A"eae "Dm"dDE | "F"F2A cAF | cAF "A7"AGE | "Dm"DED D :|
|: =C_B, \
| "F"A,CC A,CC | ccB AFC | "Gm"B,DD B,2D | GAB G2D |\
| "C"ECD EFG | CDC CDE | "F"FAB cBA |[1 "C"BGB c :|[2 "C"BGB "A"^c |]
